!!!OTL: Waechterlied.
!!!ARE: Europa, Mitteleuropa, Deutschland
!!!SCT: A0101A
!!!TXL: @@GMH
!!!YEM: Copyright 1995, estate of Helmut Schaffrath.
**kern	**text
!! Mixed meters:  4/2; 6/2
*M6/2	*
*met(c|)	*
*clefC4	*
*k[b-]	*
*F:ion	*
!LO:TX:a:t= jon. tr.	!
{1c	Wol-
=1	=1
1A	-auff,
2c	wol-
1F	-auff
2C	mit
=2	=2
*M4/2	*
2F	lau-
2G	-ter
1A}	ſtimm,
=3	=3
{2r	.
2G	thůt
2A/	vns
2B-	der
=4	=4
*lig	*
1c	wech-
2B-	.
*Xlig	*
2A	-ter
=5	=5
*M6/2	*
1G	ſin-
1F}	-gen:
{1c	Wer
=6	=6
1A	noch
2c	bei
1F	sei-
2C	-nem
=7	=7
*M4/2	*
2F	bů-
2G	-len
1A}	ligt
=8	=8
{2r	.
2G	der
2A/	mach
2B-	ſich
=9	=9
*lig	*
1c	bald
2B-	.
*Xlig	*
2A	von
=10	=10
1G	hinnen
1F	.
!LO:TX:a:t=P:lacking note value:problem	!
1r}	.
=11	=11
*M4/2	*
{2r	.
2D	Jch
2E	ſich
2F	da-
=12	=12
*M6/2	*
1G	-her
2r	.
2E	die
2F	mor-
2G	-gen-
=13	=13
1A	-röt
1r}	.
{1F	wol
=14	=14
1c	durch
2B-	die
1A	wolcken
2F	.
=15	=15
1c	trin-
2B-	.
1A	.
4G	.
4F}	.
=16	=16
{2.G	.
4A/	.
4B-/	.
4G	.
1c	.
4B-	.
4A	.
=17	=17
1G	.
1F/ll}	-gen.
==	==
!!!GTL: Tage- oder Wächterlieder
!!!AGN: Romanze, Ballade, Lied
!! Reutterliedlein 1535 No. 13.
!!!ONB: ESAC (Essen Associative Code) Database: ALTDEU
!!!AMT: irregular
!!!AIN: vox
!!!EED: Helmut Schaffrath
!!!EEV: 1.0
!!!RDF**kern: l = terminal long
!!!URL-scan: https://rosdok.uni-rostock.de/mcrviewer/recordIdentifier/rosdok_ppn738218359/iview2/phys_0268.iview2?x=-425.8853427895981&y=954.9555555755505&scale=0.4823261117445838&rotation=0&layout=singlePageLayout
!!!ENC: Anna Maria Matuszewska
!!!EEV: 2024/22/02
*-	*-
